icons/file-word.svg

<?xml version="1.0" standalone="no"?><!-- Generator: Gravit.io --><svg xmlns="http://www.w3.org/2000/svg" xmlns:xlink="http://www.w3.org/1999/xlink" width="96" height="96"><path d=" M 19.8 1 L 51.8 1 C 55.4 1 58.9 2.6 61.4 5.3 L 80.3 26.6 C 82.7 29.3 84 32.7 84 36.3 L 84 87.2 C 84 89.3 83.2 91.2 81.7 92.7 C 80.2 94.2 78.3 95 76.2 95 L 19.8 95 C 17.7 95 15.8 94.2 14.3 92.7 C 12.8 91.2 12 89.3 12 87.2 L 12 8.8 C 12 6.7 12.8 4.8 14.3 3.3 C 15.8 1.8 17.7 1 19.8 1 Z  M 20 9 L 51.8 9 C 53.2 9 54.5 9.6 55.4 10.6 L 74.4 31.9 C 75.4 33.1 76 34.7 76 36.2 L 76 87 L 20 87 L 20 9 Z  M 44 20 C 44 18.9 44.4 17.9 45.2 17.2 C 45.9 16.4 46.9 16 48 16 C 49.1 16 50.1 16.4 50.8 17.2 C 51.6 17.9 52 18.9 52 20 L 52 32 L 64 32 C 65.1 32 66.1 32.4 66.8 33.2 C 67.6 33.9 68 34.9 68 36 C 68 37.1 67.6 38.1 66.8 38.8 C 66.1 39.6 65.1 40 64 40 L 52 40 C 49.9 40 47.8 39.2 46.3 37.7 C 44.8 36.2 44 34.1 44 32 L 44 20 Z  M 63.2825 49.55499999999999 Q 65.8955 50.491 65.8955 52.051 Q 65.8955 52.55799999999999 65.42750000000001 53.961999999999996 L 57.9395 75.607 Q 57.8615 75.88 57.6665 76.27 Q 57.4715 76.66 56.632999999999996 77.3035 Q 55.7945 77.947 54.644000000000005 77.947 Q 53.4935 77.947 52.655 77.3035 Q 51.816500000000005 76.66 51.5435 76.036 L 46.9805 62.580999999999996 Q 42.6515 75.37299999999999 42.5735 75.607 Q 42.4955 75.841 42.2225 76.27 Q 41.9495 76.699 41.5985 77.05 Q 40.7015 77.947 39.4535 77.947 Q 38.2055 77.947 37.406 77.362 Q 36.6065 76.77699999999999 36.3335 76.19200000000001 L 36.060500000000005 75.607 L 28.5335 53.961999999999996 Q 28.1045 52.675 28.1045 52.051 Q 28.1045 50.491 30.7175 49.593999999999994 Q 31.8485 49.20399999999999 32.765 49.20399999999999 Q 33.6815 49.20399999999999 34.169 49.827999999999996 Q 34.6565 50.452 35.0465 51.739 L 39.3365 64.765 L 43.587500000000006 51.934 Q 44.1335 50.29599999999999 45.576499999999996 49.672 Q 46.200500000000005 49.399 47.195 49.399 Q 48.1895 49.399 49.0475 50.0425 Q 49.9055 50.68599999999999 50.1395 51.31 L 54.6245 64.84299999999999 L 58.914500000000004 51.739 Q 59.2265 50.842 59.4215 50.413 Q 59.6165 49.983999999999995 60.143 49.5745 Q 60.6695 49.16499999999999 61.4495 49.16499999999999 Q 62.2295 49.16499999999999 63.2825 49.55499999999999 Z " fill-rule="evenodd" fill="#454545" stroke-width="1" stroke="rgba(0,0,0,0)" stroke-linejoin="miter" stroke-linecap="square"/></svg>

<svg xmlns="http://www.w3.org/2000/svg" width="96" height="96"><path d="M19.8 1h32c3.6 0 7.1 1.6 9.6 4.3l18.9 21.3c2.4 2.7 3.7 6.1 3.7 9.7v50.9c0 2.1-.8 4-2.3 5.5-1.5 1.5-3.4 2.3-5.5 2.3H19.8c-2.1 0-4-.8-5.5-2.3-1.5-1.5-2.3-3.4-2.3-5.5V8.8c0-2.1.8-4 2.3-5.5C15.8 1.8 17.7 1 19.8 1zm.2 8h31.8c1.4 0 2.7.6 3.6 1.6l19 21.3c1 1.2 1.6 2.8 1.6 4.3V87H20V9zm24 11c0-1.1.4-2.1 1.2-2.8.7-.8 1.7-1.2 2.8-1.2 1.1 0 2.1.4 2.8 1.2.8.7 1.2 1.7 1.2 2.8v12h12c1.1 0 2.1.4 2.8 1.2.8.7 1.2 1.7 1.2 2.8 0 1.1-.4 2.1-1.2 2.8-.7.8-1.7 1.2-2.8 1.2H52c-2.1 0-4.2-.8-5.7-2.3-1.5-1.5-2.3-3.6-2.3-5.7V20zm19.282 29.555q2.614.936 2.614 2.496 0 .507-.468 1.911L57.94 75.607q-.078.273-.273.663-.196.39-1.034 1.034-.839.643-1.989.643-1.15 0-1.989-.644-.838-.643-1.111-1.267L46.98 62.581q-4.33 12.792-4.407 13.026-.078.234-.352.663-.273.429-.623.78-.897.897-2.145.897t-2.048-.585q-.8-.585-1.072-1.17l-.273-.585-7.527-21.645q-.43-1.287-.43-1.911 0-1.56 2.614-2.457 1.13-.39 2.047-.39.916 0 1.404.624.488.624.878 1.911l4.29 13.026 4.25-12.831q.546-1.638 1.99-2.262.624-.273 1.618-.273.995 0 1.852.643.859.644 1.093 1.268l4.484 13.533 4.29-13.104q.313-.897.508-1.326.195-.429.721-.838.526-.41 1.306-.41t1.834.39z" fill-rule="evenodd" fill="#454545" stroke="rgba(0,0,0,0)" stroke-linecap="square"/></svg>
